**harmony	**harte	**kern	**silbe	**rhyme	**timestamp	**phrase
*M4/4	*M4/4	*ICvox	*	*	*	*
*	*	*VRlead	*	*	*	*
*	*	*Hstimme	*	*	*	*
*B-:	*B-:	*B-:	*	*	*	*
*	*	*M4/4	*	*	*	*
*	*	*clefG2	*	*	*	*
1r;	1r	r;	.	.	0	.
=1	=1	=1	=1	=1	=1	=1
*>Letter>A	*>Letter>A	*>Letter>A	*>Letter>A	*>Letter>A	*>Letter>A	*>Letter>A
*>Label>Intro	*>Label>Intro	*>Label>Intro	*>Label>Intro	*>Label>Intro	*>Label>Intro	*>Label>Intro
2B-M	B-:maj	1r	.	.	0.209	newline
2B-MM	B-:maj7	.	.	.	1.743	.
=2	=2	=2	=2	=2	=2	=2
2A-M	A-:maj6/2	1r	.	.	3.277	.
2B-MM	B-:maj7	.	.	.	4.811	.
=3	=3	=3	=3	=3	=3	=3
2B-M	B-:maj	1r	.	.	6.346	newline
2B-MM	B-:maj7	.	.	.	7.895	.
=4	=4	=4	=4	=4	=4	=4
2A-M	A-:maj6/2	1r	.	.	9.444	.
2B-MM	B-:maj7	.	.	.	10.993	.
=5	=5	=5	=5	=5	=5	=5
*>Letter>B	*>Letter>B	*>Letter>B	*>Letter>B	*>Letter>B	*>Letter>B	*>Letter>B
*>Label>Verse	*>Label>Verse	*>Label>Verse	*>Label>Verse	*>Label>Verse	*>Label>Verse	*>Label>Verse
1Gm	G:min	2r	.	.	12.542	newline
.	.	8g	Oh	.	.	.
.	.	[8d	no	A	.	.
.	.	4d]	_	.	.	.
=6	=6	=6	=6	=6	=6	=6
1Dm	D:min	4r	.	.	15.581	.
.	.	8r	.	.	.	.
.	.	8f	do-	.	.	.
.	.	8g	-n't	.	.	.
.	.	4.d	go	A	.	.
=7	=7	=7	=7	=7	=7	=7
1E-M	E-:maj	2.r	.	.	18.62	newline
.	.	8G	it's	.	.	.
.	.	8G	ho-	.	.	.
=8	=8	=8	=8	=8	=8	=8
1B-M	B-:maj	4B-	-urs	.	21.736	.
.	.	8c	til	.	.	.
.	.	[8d	dawn	B	.	.
.	.	8d]	_	.	.	.
.	.	8r	.	.	.	.
.	.	4r	.	.	.	.
=9	=9	=9	=9	=9	=9	=9
1E-M	E-:maj	2r	.	.	24.852	newline
.	.	6r	.	.	.	.
.	.	6G	and	.	.	.
.	.	6B-	there's	.	.	.
=10	=10	=10	=10	=10	=10	=10
2.B-M	B-:maj/3	8d	no	.	27.905	.
.	.	[8f	one	B	.	.
.	.	4f]	_	.	.	.
.	.	4.r	.	.	.	.
4B-M	B-:maj	.	.	.	30.195	.
.	.	[8f	who'd	.	.	.
=11	=11	=11	=11	=11	=11	=11
1Cm	C:min	16f]	_	.	30.958	newline
.	.	8.e-	ra-	.	.	.
.	.	8d	-ther	.	.	.
.	.	[8c	be	.	.	.
.	.	4c_	_	.	.	.
.	.	8c]	_	.	.	.
.	.	16f	with	.	.	.
.	.	[16f	you	.	.	.
=12	=12	=12	=12	=12	=12	=12
2E-M	E-:maj/2	4f]	_	.	34.114	.
.	.	4r	.	.	.	.
2FM	F:maj	2r	.	.	35.691	.
=13	=13	=13	=13	=13	=13	=13
1Gm	G:min	2r	.	.	37.269	newline
.	.	8g	I	.	.	.
.	.	[8d	know	A	.	.
.	.	4d]	_	.	.	.
=14	=14	=14	=14	=14	=14	=14
1Dm	D:min	2r	.	.	40.426	.
.	.	8f	you	.	.	.
.	.	[8d	know	A	.	.
.	.	4d]	_	.	.	.
=15	=15	=15	=15	=15	=15	=15
1E-M	E-:maj	2r	.	.	43.584	newline
.	.	8r	.	.	.	.
.	.	16G	o-	.	.	.
.	.	16B-	-ther	.	.	.
.	.	8B-	girls	.	.	.
.	.	[8c	like	.	.	.
=16	=16	=16	=16	=16	=16	=16
1B-M	B-:maj	8c]	_	.	46.732	.
.	.	[8d	me	.	.	.
.	.	4d]	_	.	.	.
.	.	2r	.	.	.	.
=17	=17	=17	=17	=17	=17	=17
1E-M	E-:maj	2r	.	.	49.88	newline
.	.	8r	.	.	.	.
.	.	8B-	I	.	.	.
.	.	16B-	let	.	.	.
.	.	[16B-	you	.	.	.
.	.	16B-]	_	.	.	.
.	.	[16B-	take	.	.	.
=18	=18	=18	=18	=18	=18	=18
1B-M	B-:maj/3	16B-]	_	.	52.993	.
.	.	8.B-	my	.	.	.
.	.	4f	love	.	.	.
.	.	4r	.	.	.	.
.	.	8r	.	.	.	.
.	.	16f	kno-	.	.	.
.	.	16f	-wing	.	.	.
=19	=19	=19	=19	=19	=19	=19
1Cm	C:min	6e-	you	.	56.105	newline
.	.	6d	don't	.	.	.
.	.	[6c	love	.	.	.
.	.	8c]	_	.	.	.
.	.	8f	_	.	.	.
.	.	[4f	me	.	.	.
=20	=20	=20	=20	=20	=20	=20
2E-M	E-:maj/2	2f_	_	.	59.327	.
2FM	F:maj	8f]	_	.	60.939	.
.	.	8f	but	.	.	.
.	.	16f	if	.	.	.
.	.	16b-	_	.	.	.
.	.	[8a	I	.	.	.
=21	=21	=21	=21	=21	=21	=21
*>Letter>C	*>Letter>C	*>Letter>C	*>Letter>C	*>Letter>C	*>Letter>C	*>Letter>C
*>Label>Chorus	*>Label>Chorus	*>Label>Chorus	*>Label>Chorus	*>Label>Chorus	*>Label>Chorus	*>Label>Chorus
1B-MM	B-:maj7	2a]	_	.	62.55	newline
.	.	8g	could	.	.	.
.	.	8a	reach	.	.	.
.	.	[4f	you	.	.	.
=22	=22	=22	=22	=22	=22	=22
1E-MM	E-:maj7	8f]	_	.	65.8	.
.	.	8d	some	.	.	.
.	.	2g	way	C	.	.
.	.	8r	.	.	.	.
.	.	16f	If	.	.	.
.	.	[16b-	I	.	.	.
=23	=23	=23	=23	=23	=23	=23
1B-MM	B-:maj7	8b-]	_	.	69.05	newline
.	.	[8a	knew	.	.	.
.	.	8.a]	_	.	.	.
.	.	16g	the	.	.	.
.	.	4a	mag-	.	.	.
.	.	8f	-ic	.	.	.
.	.	8r	.	.	.	.
=24	=24	=24	=24	=24	=24	=24
1E-MM	E-:maj7	8.r	.	.	72.208	.
.	.	[16f	it	.	.	.
.	.	16f]	_	.	.	.
.	.	16B-	would	.	.	.
.	.	[16g	take	C	.	.
.	.	16g_	_	.	.	.
.	.	8g]	_	.	.	.
.	.	8r	.	.	.	.
.	.	8.r	.	.	.	.
.	.	16d	to	.	.	.
=25	=25	=25	=25	=25	=25	=25
1Dm	D:min	8.f	love	.	75.366	newline
.	.	[16f	you	.	.	.
.	.	4f]	_	.	.	.
.	.	8r	.	.	.	.
.	.	16d	good	.	.	.
.	.	16e-	en-	.	.	.
.	.	8f	-ough	.	.	.
.	.	8r	.	.	.	.
=26	=26	=26	=26	=26	=26	=26
1Gm	G:min	8r	.	.	78.492	.
.	.	16d	on	.	.	.
.	.	16c	the	.	.	.
.	.	16d	out-	.	.	.
.	.	8B-	_	.	.	.
.	.	[16B-	-side	D	.	.
.	.	4B-]	_	.	.	.
.	.	4r	.	.	.	.
=27	=27	=27	=27	=27	=27	=27
1Dm	D:min	16r	.	.	81.618	newline
.	.	16d	and	.	.	.
.	.	[8f	make	.	.	.
.	.	8f]	_	.	.	.
.	.	16f	you	.	.	.
.	.	16f	feel	.	.	.
.	.	16g	_	.	.	.
.	.	16f	_	.	.	.
.	.	8f	it	.	.	.
.	.	4r	.	.	.	.
=28	=28	=28	=28	=28	=28	=28
1Gm	G:min	8r	.	.	84.758	.
.	.	16d	on	.	.	.
.	.	16c	the	.	.	.
.	.	16d	in-	.	.	.
.	.	8B-	_	.	.	.
.	.	[16B-	-side	D	.	.
.	.	4B-]	_	.	.	.
.	.	4r	.	.	.	.
=29	=29	=29	=29	=29	=29	=29
1Cm	C:min	8c	may-	.	87.897	newline
.	.	16d	-be	.	.	.
.	.	16d	I	.	.	.
.	.	4e-	_	.	.	.
.	.	8d	could	.	.	.
.	.	8c	make	.	.	.
.	.	8B-	you	.	.	.
.	.	[8c	stay	C	.	.
=30	=30	=30	=30	=30	=30	=30
2E-M	E-:maj/2	2c]	_	.	91.039	.
2FM	F:maj	2r	.	.	92.61	.
=31	=31	=31	=31	=31	=31	=31
*>Letter>A	*>Letter>A	*>Letter>A	*>Letter>A	*>Letter>A	*>Letter>A	*>Letter>A
*>Label>Trans	*>Label>Trans	*>Label>Trans	*>Label>Trans	*>Label>Trans	*>Label>Trans	*>Label>Trans
2B-M	B-:maj	8r	.	.	94.181	newline
.	.	16f	If	.	.	.
.	.	[16f	I	.	.	.
.	.	4f_	_	.	.	.
2B-MM	B-:maj7	8f]	_	.	95.745	.
.	.	8d	could	.	.	.
.	.	16c	reach	.	.	.
.	.	[16d	_	.	.	.
.	.	8d]	_	.	.	.
=32	=32	=32	=32	=32	=32	=32
2A-M	A-:maj6/2	8d	you	.	97.31	.
.	.	8r	.	.	.	.
.	.	4r	.	.	.	.
2B-MM	B-:maj7	2r	.	.	98.874	.
=33	=33	=33	=33	=33	=33	=33
2B-M	B-:maj	1r	.	.	100.439	newline
2B-MM	B-:maj7	.	.	.	101.975	.
=34	=34	=34	=34	=34	=34	=34
2A-M	A-:maj6/2	1r	.	.	103.511	.
2B-MM	B-:maj7	.	.	.	105.047	.
=35	=35	=35	=35	=35	=35	=35
*>Letter>B	*>Letter>B	*>Letter>B	*>Letter>B	*>Letter>B	*>Letter>B	*>Letter>B
*>Label>Verse	*>Label>Verse	*>Label>Verse	*>Label>Verse	*>Label>Verse	*>Label>Verse	*>Label>Verse
1Gm	G:min	2r	.	.	106.584	newline
.	.	8g	the	.	.	.
.	.	[8d	dark	.	.	.
.	.	4d]	_	.	.	.
=36	=36	=36	=36	=36	=36	=36
1Dm	D:min	4r	.	.	109.745	.
.	.	8r	.	.	.	.
.	.	16r	.	.	.	.
.	.	16d	is	.	.	.
.	.	16f	get-	.	.	.
.	.	[16g	-ting	.	.	.
.	.	16g]	_	.	.	.
.	.	4d	light	.	.	.
.	.	16r	.	.	.	.
=37	=37	=37	=37	=37	=37	=37
1E-M	E-:maj	2.r	.	.	112.907	newline
.	.	8G	and	.	.	.
.	.	8G	you're	.	.	.
=38	=38	=38	=38	=38	=38	=38
1B-M	B-:maj	8B-	dressed	.	116.093	.
.	.	8c	to	.	.	.
.	.	16c	go	A	.	.
.	.	[16d	_	.	.	.
.	.	8d_	_	.	.	.
.	.	8d]	_	.	.	.
.	.	8r	.	.	.	.
.	.	4r	.	.	.	.
=39	=39	=39	=39	=39	=39	=39
1E-M	E-:maj	2r	.	.	119.28	newline
.	.	8r	.	.	.	.
.	.	8B-	and	.	.	.
.	.	16B-	ne-	.	.	.
.	.	[16B-	-ver	.	.	.
.	.	16B-]	_	.	.	.
.	.	[16B-	said	.	.	.
=40	=40	=40	=40	=40	=40	=40
1B-M	B-:maj/3	16B-]	_	.	122.396	.
.	.	[16B-	a	.	.	.
.	.	8B-]	_	.	.	.
.	.	[4f	word	.	.	.
.	.	4f]	_	.	.	.
.	.	16r	.	.	.	.
.	.	16f	a-	.	.	.
.	.	[8e-	-bout	.	.	.
=41	=41	=41	=41	=41	=41	=41
1Cm	C:min	16e-]	_	.	125.513	newline
.	.	16d	to-	.	.	.
.	.	[8c	-mor-	.	.	.
.	.	4c]	_	.	.	.
.	.	[2f	-row	A	.	.
=42	=42	=42	=42	=42	=42	=42
2E-M	E-:maj/2	4.f]	_	.	128.742	.
.	.	8f	but	.	.	.
2FM	F:maj	4cc	if	.	130.357	.
.	.	[4a	I	.	.	.
=43	=43	=43	=43	=43	=43	=43
*>Letter>C	*>Letter>C	*>Letter>C	*>Letter>C	*>Letter>C	*>Letter>C	*>Letter>C
*>Label>Chorus	*>Label>Chorus	*>Label>Chorus	*>Label>Chorus	*>Label>Chorus	*>Label>Chorus	*>Label>Chorus
1B-MM	B-:maj7	4.a]	_	.	131.972	newline
.	.	8g	could	.	.	.
.	.	8a	reach	.	.	.
.	.	[8f	you	.	.	.
.	.	4f_	_	.	.	.
=44	=44	=44	=44	=44	=44	=44
1E-MM	E-:maj7	8f]	_	.	135.25	.
.	.	8d	some	.	.	.
.	.	2g	way	C	.	.
.	.	16r	.	.	.	.
.	.	16f	If	.	.	.
.	.	[8b-	I	.	.	.
=45	=45	=45	=45	=45	=45	=45
1B-MM	B-:maj7	8b-]	_	.	138.529	newline
.	.	[8a	knew	.	.	.
.	.	8.a]	_	.	.	.
.	.	16g	the	.	.	.
.	.	4a	mag-	.	.	.
.	.	8f	-ic	.	.	.
.	.	8r	.	.	.	.
=46	=46	=46	=46	=46	=46	=46
1E-MM	E-:maj7	16r	.	.	141.704	.
.	.	[16f	it	.	.	.
.	.	16f]	_	.	.	.
.	.	16B-	would	.	.	.
.	.	[16g	take	C	.	.
.	.	16g_	_	.	.	.
.	.	8g]	_	.	.	.
.	.	4..r	.	.	.	.
.	.	16d	to	.	.	.
=47	=47	=47	=47	=47	=47	=47
1Dm	D:min	8f	love	.	144.88	newline
.	.	[8f	you	.	.	.
.	.	4f]	_	.	.	.
.	.	16d	good	.	.	.
.	.	8e-	en-	.	.	.
.	.	16f	-ough	.	.	.
.	.	4r	.	.	.	.
=48	=48	=48	=48	=48	=48	=48
1Gm	G:min	8r	.	.	148.084	.
.	.	16d	on	.	.	.
.	.	16c	the	.	.	.
.	.	16d	out-	.	.	.
.	.	8B-	_	.	.	.
.	.	[16B-	-side	D	.	.
.	.	4B-]	_	.	.	.
.	.	4r	.	.	.	.
=49	=49	=49	=49	=49	=49	=49
1Dm	D:min	8r	.	.	151.288	newline
.	.	16d	and	.	.	.
.	.	8f	make	.	.	.
.	.	16f	you	.	.	.
.	.	16b-	feel-	.	.	.
.	.	16f	_	.	.	.
.	.	16g	_	.	.	.
.	.	16f	_	.	.	.
.	.	8f	-it	.	.	.
.	.	8r	.	.	.	.
.	.	8r	.	.	.	.
=50	=50	=50	=50	=50	=50	=50
1Gm	G:min	8r	.	.	154.451	.
.	.	16d	on	.	.	.
.	.	16c	the	.	.	.
.	.	16d	in-	.	.	.
.	.	16B-	_	.	.	.
.	.	8B-	-side	D	.	.
.	.	2r	.	.	.	.
=51	=51	=51	=51	=51	=51	=51
2Cm	C:min	8c	may-	.	157.613	newline
.	.	16d	-be	.	.	.
.	.	16d	I	.	.	.
.	.	4e-	_	.	.	.
2Cm	C:minmaj7	8e-	could	.	159.205	.
.	.	[8f	make	.	.	.
.	.	8f]	_	.	.	.
.	.	8f	you	.	.	.
=52	=52	=52	=52	=52	=52	=52
2E-M	E-:maj/2	16d	stay	C	160.798	.
.	.	[8.c	_	.	.	.
.	.	2.c]	_	.	.	.
2FM	F:maj	.	.	.	162.39	.
=53	=53	=53	=53	=53	=53	=53
*>Letter>A2	*>Letter>A2	*>Letter>A2	*>Letter>A2	*>Letter>A2	*>Letter>A2	*>Letter>A2
*>Label>Outro	*>Label>Outro	*>Label>Outro	*>Label>Outro	*>Label>Outro	*>Label>Outro	*>Label>Outro
1B-MM	B-:maj7	2r	.	.	163.982	newline
.	.	16r	.	.	.	.
.	.	16f	see	.	.	.
.	.	16d	you	.	.	.
.	.	[16c	next	.	.	.
.	.	8c]	_	.	.	.
.	.	[8d	time	.	.	.
=54	=54	=54	=54	=54	=54	=54
1E-MM	E-:maj7	4d]	_	.	167.144	.
.	.	4r	.	.	.	.
.	.	2r	.	.	.	.
=55	=55	=55	=55	=55	=55	=55
1B-MM	B-:maj7	8r	.	.	170.305	newline
.	.	[8b-	I'll	.	.	.
.	.	8b-]	_	.	.	.
.	.	16a	see-	.	.	.
.	.	[16g	-ya	.	.	.
.	.	4g]	_	.	.	.
.	.	4r	.	.	.	.
=56	=56	=56	=56	=56	=56	=56
1E-MM	E-:maj7	8r	.	.	173.944	.
.	.	8a	next	.	.	.
.	.	4f	time	.	.	.
.	.	2r	.	.	.	.
=57	=57	=57	=57	=57	=57	=57
1B-M	B-:maj	1r	.	.	177.582	newline
1r;	1r	r;	.	.	184.645	.
1r;	1r	r;	.	.	189.283	.
*-	*-	*-	*-	*-	*-	*-
!!!BillboardChartDate: 1972/09/23
!!!BillboardPeak: 10
!!!BillboardWeeksOnChart: 15
!!!COC: The 5th Dimension
!!!ENC: Nathaniel Condit-Schultz
!!!EST: Awating manual error checking and editing.
!!!OTL: If I Could Reach You
!!!RDF**chordsym: original McGill chord annotation + (implied pitch class set, with bass pitch in first position)
!!!RDF**harmony: **recip + pitch class of root + harmonic quality
!!!RDF**leadinstrument: original McGill primary instrumentation annotation
!!!RDF**phrase: newline = linebreak in original McGill transcription
!!!RDF**timestamp: McGill audio timestamp in seconds
!!!RDT: 2017/01/12/
!!!SampleActualRank: 47
!!!SampleID#: 0433
!!!SampleTargetRank: 47
!!!MBID: 1334353a-5fa3-4aa1-923d-3d7d30033ad8
